symbols/web/new_releases/materialsymbolsrounded/new_releases_wght200grad200fill1_48px.svg

<svg xmlns="http://www.w3.org/2000/svg" height="48" width="48"><path d="m14.25 37.45-5.35-1.1q-.65-.05-1-.6-.35-.55-.3-1.25l.5-5.35-3.5-4.05q-.4-.45-.4-1.1 0-.65.4-1.1l3.5-4.05-.5-5.35q-.05-.65.3-1.225.35-.575 1-.625l5.35-1.1 2.8-4.7q.3-.55.925-.775.625-.225 1.175.025L24 7.3l4.9-2.2q.5-.25 1.125 0t.975.75l2.8 4.7 5.35 1.1q.6.05.95.625t.35 1.225l-.55 5.35 3.5 4.05q.4.45.4 1.1 0 .65-.4 1.1l-3.5 4.05.55 5.35q0 .7-.35 1.25t-.95.6l-5.35 1.1-2.8 4.7q-.35.5-.975.75t-1.125 0L24 40.7l-4.85 2.2q-.55.25-1.175.025t-.925-.775Zm6.45-8.7q.5.55 1.175.55t1.225-.55l8.55-8.5q.3-.25.225-.7-.075-.45-.275-.75-.35-.35-.825-.325-.475.025-.775.325l-8.1 8.1-3.8-3.9q-.35-.4-.8-.375-.45.025-.75.425-.4.35-.425.8-.025.45.425.75Z"/></svg>

<svg xmlns="http://www.w3.org/2000/svg" height="48" width="48"><path d="M14.25 37.45 8.9 36.35Q8.25 36.3 7.9 35.75Q7.55 35.2 7.6 34.5L8.1 29.15L4.6 25.1Q4.2 24.65 4.2 24Q4.2 23.35 4.6 22.9L8.1 18.85L7.6 13.5Q7.55 12.85 7.9 12.275Q8.25 11.7 8.9 11.65L14.25 10.55L17.05 5.85Q17.35 5.3 17.975 5.075Q18.6 4.85 19.15 5.1L24 7.3L28.9 5.1Q29.4 4.85 30.025 5.1Q30.65 5.35 31 5.85L33.8 10.55L39.15 11.65Q39.75 11.7 40.1 12.275Q40.45 12.85 40.45 13.5L39.9 18.85L43.4 22.9Q43.8 23.35 43.8 24Q43.8 24.65 43.4 25.1L39.9 29.15L40.45 34.5Q40.45 35.2 40.1 35.75Q39.75 36.3 39.15 36.35L33.8 37.45L31 42.15Q30.65 42.65 30.025 42.9Q29.4 43.15 28.9 42.9L24 40.7L19.15 42.9Q18.6 43.15 17.975 42.925Q17.35 42.7 17.05 42.15ZM20.7 28.75Q21.2 29.3 21.875 29.3Q22.55 29.3 23.1 28.75L31.65 20.25Q31.95 20 31.875 19.55Q31.8 19.1 31.6 18.8Q31.25 18.45 30.775 18.475Q30.3 18.5 30 18.8L21.9 26.9L18.1 23Q17.75 22.6 17.3 22.625Q16.85 22.65 16.55 23.05Q16.15 23.4 16.125 23.85Q16.1 24.3 16.55 24.6Z"/></svg>
